X: 34838
T: Roaring Barmaid, The
R: jig
M: 6/8
K: Gmajor
G2G EGD|GFG EGD|GDD BDD|dDD B2A|
G2G EGD|GFG EGD|GAB deg|deg edB:|
|:DEG B2B|BAB DEG|B2B BAG|AGE DEG|
B2B BAB|AGG BGG|AGG EFG|1 EFG EDB,:|2 (G,3 G,3)||

